X:1
T:Be Prepared
T:Be Prepared
T:J. R. Laughterty
T:Sylvia Lee, 1922
T:Public Domain Courtesy of the Cyber Hymnal™
T:Public Domain Courtesy of the Cyber Hymnal™
C:J. R. Laughterty
Z:Public Domain
Z:Courtesy of the Cyber Hymnal™
%%score ( 1 2 ) ( 3 4 )
L:1/8
Q:1/4=90
M:4/4
K:G
V:1 treble 
V:2 treble 
V:3 bass 
V:4 bass 
V:1
 [B,D]>[CE] | [DG]>[DG] [GB]>[Gd] [GB]>[GB] [FA]>[FA] | [DG]6 [DG]>[DA] | %3
w: 1.~Oh! a|won- drous time is com- ing un- to|you, And the|
w: 2.~Je- sus,|for each trust- ing soul, es- cape pro-|vides Thro’ His|
w: 3.~Look to|Christ, be- liev- ing, and His name con-|fess, That He|
 [GB]>[GB] [DB]>[DA] [EG]2 [GB]2 | [Fd]6 [Fe]>[Fd] | [GB]>[GB] [GB]>[FA] [EG]>[EG] [EG]>[CE] | %6
w: day nor hour no mor- tal|knows; Be pre-|pared, ac- cept and trust the Sav- ior|
w: mer- cy and un- chang- ing|love, And from|death and night the wan- derer safe- ly|
w: may sal- va- tion free- ly|give; Be pre-|pared, re- deemed from all un- right- eous-|
 [B,D]6 [B,D]>[B,E] | [B,G]>[B,G] [DG]>[EA] [DB]2 [CA]2 | [B,G]6 ||"^Refrain" B>B | %10
w: true, Death and|judg- ment meet with calm re-|pose!||
w: guides To the|shel- ter of the home a-|bove.|Be pre-|
w: ness, And for-|ev- er in His pre- sence|live!||
 B4- [GB]>[G^A] [GB]>[Gc] | d6 G2 [DG]>[FA] | [GB]>[GB] [GB]>[FA] [DG]2 [GB]2 | A6 B>B | %14
w: ||||
w: pared, oh! why de- lay,|* When a mo-|* ment may de- cide your|fate? Be pre-|
w: ||||
 B6- [GB]>[G^A][GB]>[Gc] | d6 [Ge]>[Ad] | [GB]>[GB] [GB]>[Gc] [GB]2 [FA]2 | G4- [DG]2 |] %18
w: ||||
w: pared for Christ to- day,|* Lest it|shall for- ev- er be too|late! *|
w: ||||
V:2
 x2 | x8 | x8 | x8 | x8 | x8 | x8 | x8 | x6 || x2 | G2 G2 x4 | G>GG>G x6 | x8 | (F>FF>F F2) x2 | %14
 G2 G2 x6 | (G>GG>G G2) x2 | x8 | G3/2 E<D^C/ x2 |] %18
V:3
 G,>G, | [G,B,]>[G,B,] [G,D]>[G,B,] [G,D]>[G,D] [D,C]>[D,C] | [G,B,]6 [G,B,]>[G,C] | %3
w: ~ ~|~ ~ ~ ~ ~ ~ ~ ~|~ ~ ~|
 [G,D]>[G,D] G,>[F,A,] [E,B,]2 [E,G,]2 | [D,A,]6 [D,D]>[D,D] | %5
w: ~ ~ ~ ~ ~ ~|~ ~ ~|
 [G,D]>[G,D] [G,D]>[D,C] [E,B,]>[E,B,] [C,C]>[C,G,] | [G,,G,]6 G,>G, | %7
w: ~ ~ ~ ~ ~ ~ ~ ~|~ ~ ~|
 [E,G,]>[E,G,] [B,,G,]>[C,G,] [D,G,]2 [D,F,]2 | [G,,G,]6 || z2 | %10
w: ~ ~ ~ ~ ~ ~|~||
 [G,D]2 [G,D]2 [G,D]>[G,^C] [G,D]>[G,A,] | [G,B,]>[G,B,] [G,B,]>[G,B,] [G,B,]2 [B,D]>[A,D] x2 | %12
w: Be pre- pared, ~ ~ ~|~ oh! why de- lay, ~ ~|
 [G,D]>[G,D] [G,D]>[A,D] [B,D]2 [G,D]2 | [D,D]>[D,D] [D,D]>[D,D] [D,D]2 z2 | %14
w: ~ ~ ~ ~ ~ ~|~ de- cide your fate?|
 [G,D]2 [G,D]2 [G,D]>[G,^C] [G,D]>[G,A,] x2 | [G,B,]>[G,B,] [G,B,]>[G,B,] [G,B,]2 [E,B,]>[F,D] | %16
w: Be pre- pared ~ ~ ~|~ for Christ to- day, ~ ~|
 [G,D]>[G,D] [G,D]>[C,E] [D,D]2 [D,C]2 | B,>C B,>^A, [G,,B,]2 |] %18
w: ~ ~ ~ ~ ~ ~|shall be too late! *|
V:4
 G,>G, | x8 | x8 | x2 G,3/2 x9/2 | x8 | x8 | x6 G,>G, | x8 | x6 || x2 | x8 | x10 | x8 | x8 | x10 | %15
 x8 | x8 | G,,4- x2 |] %18

